build/assets/img/stage-promotion/image-element-5.svg

<svg width="43" height="47" viewBox="0 0 43 47" fill="none" xmlns="http://www.w3.org/2000/svg">
<path d="M28.9937 11.2537L8.82241 17.2562C7.4468 17.67 6.26254 18.5977 5.5284 19.8366C4.79427 21.0755 4.56997 22.5249 4.9045 23.868L6.97655 32.1041C7.31952 33.4449 8.19254 34.5673 9.40517 35.2265C10.6178 35.8857 12.0717 36.0282 13.4496 35.623L18.3264 34.1707C21.1705 35.6082 22.9812 37.0047 23.785 36.7632C24.5887 36.5218 25.6318 33.9732 27.2654 31.5084L33.6175 29.6158C34.9924 29.2017 36.1762 28.2744 36.9104 27.0362C37.6447 25.798 37.87 24.3494 37.5371 23.0064L35.4608 14.7697C35.1192 13.4295 34.2472 12.3073 33.0354 11.6485C31.8236 10.9896 30.3705 10.8477 28.9937 11.2537Z" fill="url(#paint0_linear)"/>
<path d="M27.2673 20.1609C26.726 17.9757 24.6178 16.9185 22.8587 17.4315C22.1463 17.6369 21.5074 18.0606 21.0364 18.6401C20.5654 19.2195 20.2873 19.924 20.2432 20.6493C19.8705 20.0448 19.3047 19.5855 18.6294 19.3394C17.9541 19.0932 17.2051 19.0731 16.4929 19.282C14.7321 19.7926 13.4069 21.8462 13.935 24.0446C14.754 27.3532 20.8874 29.6273 22.2697 29.6502L22.3492 29.6499C22.3862 29.6477 22.423 29.6425 22.4594 29.6344C22.4941 29.6224 22.5278 29.6075 22.56 29.5897L22.6272 29.5406C23.8223 28.7713 28.0847 23.4671 27.2673 20.1609Z" fill="#FCFCFC"/>
<defs>
<linearGradient id="paint0_linear" x1="34.0745" y1="14.0444" x2="7.66558" y2="31.8973" gradientUnits="userSpaceOnUse">
<stop stop-color="#A62E41"/>
<stop offset="1" stop-color="#E13152"/>
</linearGradient>
</defs>
</svg>

<svg width="43" height="47" fill="none" xmlns="http://www.w3.org/2000/svg"><path d="M28.994 11.254L8.822 17.256a5.78 5.78 0 00-3.294 2.58c-.734 1.24-.958 2.689-.623 4.032l2.072 8.236a4.928 4.928 0 002.428 3.123c1.213.659 2.667.801 4.045.396l4.876-1.452c2.845 1.437 4.655 2.834 5.459 2.592.804-.241 1.847-2.79 3.48-5.255l6.352-1.892a5.783 5.783 0 003.293-2.58c.735-1.238.96-2.687.627-4.03l-2.076-8.236a4.92 4.92 0 00-2.426-3.121c-1.211-.66-2.664-.801-4.041-.395z" fill="url(#paint0_linear)"/><path d="M27.267 20.16c-.541-2.184-2.65-3.241-4.408-2.729a3.664 3.664 0 00-1.823 1.21 3.536 3.536 0 00-.793 2.008 3.159 3.159 0 00-1.614-1.31 3.425 3.425 0 00-2.136-.057c-1.76.51-3.086 2.564-2.558 4.763.819 3.308 6.952 5.582 8.335 5.605h.08a.698.698 0 00.11-.016.64.64 0 00.1-.044l.067-.05c1.195-.769 5.458-6.073 4.64-9.38z" fill="#FCFCFC"/><defs><linearGradient id="paint0_linear" x1="34.075" y1="14.044" x2="7.666" y2="31.897" gradientUnits="userSpaceOnUse"><stop stop-color="#A62E41"/><stop offset="1" stop-color="#E13152"/></linearGradient></defs></svg>
